public/assets/images/icons/yellow/consultation.svg

<svg width="16" height="16" xmlns="http://www.w3.org/2000/svg" viewBox="0 0 16 16" shape-rendering="geometricPrecision" fill="#ffad00"><path d="M1.059 3.199v2.777c0 .59.481 1.07 1.07 1.07h2.768a3.816 3.816 0 0 0 2.333 1.35c-.516-.461-.63-.965-.618-1.349h.499c.588 0 1.069-.48 1.069-1.07V3.199c0-.588-.481-1.07-1.069-1.07H2.129c-.589 0-1.07.482-1.07 1.07zm1.274 1.426h4.509v.629H2.333v-.629zm0-1.303h4.509v.63H2.333v-.63zM13.15 6.007a2.13 2.13 0 1 0-4.26 0 2.13 2.13 0 0 0 4.26 0zm-6.163 5.194v2.669h8.067v-2.669a2.054 2.054 0 0 0-2.047-2.053H9.041a2.06 2.06 0 0 0-2.054 2.053z"/></svg>

<?xml version="1.0"?><!DOCTYPE svg PUBLIC "-//W3C//DTD SVG 1.1//EN" "http://www.w3.org/Graphics/SVG/1.1/DTD/svg11.dtd"><svg width="16px" height="16px" xmlns="http://www.w3.org/2000/svg" viewBox="0 0 16 16" shape-rendering="geometricPrecision" fill="#ffad00"><g><path d="M1.059,3.199v2.777c0,0.59,0.481,1.07,1.07,1.07h2.768c0.052,0.069,0.866,1.123,2.333,1.35 C6.714,7.935,6.6,7.431,6.612,7.047h0.499c0.588,0,1.069-0.48,1.069-1.07V3.199c0-0.588-0.481-1.07-1.069-1.07H2.129 C1.54,2.129,1.059,2.611,1.059,3.199z M2.333,4.625h4.509v0.629H2.333V4.625z M2.333,3.322h4.509v0.63H2.333V3.322z"/><g><path d="M13.15,6.007c0-1.177-0.954-2.13-2.129-2.13c-1.18,0-2.131,0.953-2.131,2.13c0,1.178,0.951,2.13,2.131,2.13 C12.196,8.137,13.15,7.185,13.15,6.007z M6.987,11.201v2.669h8.067v-2.669c0-1.129-0.918-2.053-2.047-2.053H9.041 C7.913,9.148,6.987,10.072,6.987,11.201z"/></g></g></svg>
